images/Vector1.svg

<svg width="13" height="13" viewBox="0 0 13 13" fill="none" xmlns="http://www.w3.org/2000/svg">
<path d="M2.8 12.3334H0.133331V4.33343H2.8V12.3334ZM1.4672 3.26676C0.729598 3.26676 0.133331 2.6689 0.133331 1.9329C0.133331 1.1969 0.730665 0.600098 1.4672 0.600098C2.20213 0.600098 2.8 1.19796 2.8 1.9329C2.8 2.6689 2.20213 3.26676 1.4672 3.26676ZM12.4 12.3334H9.83626V8.4401C9.83626 7.51156 9.81866 6.31743 8.50346 6.31743C7.16853 6.31743 6.9632 7.32863 6.9632 8.3729V12.3334H4.4V4.32756H6.8608V5.42143H6.89546C7.23786 4.7921 8.07466 4.12863 9.32266 4.12863C11.92 4.12863 12.4 5.78676 12.4 7.9425C12.4 7.9425 12.4 12.3334 12.4 12.3334Z" fill="#0082C6"/>
</svg>

<svg width="13" height="13" fill="none" xmlns="http://www.w3.org/2000/svg"><path d="M2.8 12.333H.133v-8H2.8v8zM1.467 3.267a1.334 1.334 0 110-2.668 1.334 1.334 0 010 2.668zM12.4 12.333H9.836V8.44c0-.928-.017-2.123-1.333-2.123-1.334 0-1.54 1.012-1.54 2.056v3.96H4.4V4.328h2.46V5.42h.035c.343-.629 1.18-1.292 2.428-1.292 2.597 0 3.077 1.658 3.077 3.814v4.39z" fill="#0082C6"/></svg>
